src/images/svg/symbols/markets-stocks-and-indices/american-stocks/stocks-procter-gamble.svg

<svg width="32" height="32" viewBox="0 0 32 32" fill="none" xmlns="http://www.w3.org/2000/svg">
<g clip-path="url(#clip0_13177_25984)">
<path d="M0 16C0 7.16344 7.16344 0 16 0C24.8366 0 32 7.16344 32 16C32 24.8366 24.8366 32 16 32C7.16344 32 0 24.8366 0 16Z" fill="url(#paint0_radial_13177_25984)"/>
<circle cx="21" cy="16" r="16" fill="url(#paint1_linear_13177_25984)"/>
<path d="M26.5505 12.918C26.1423 12.7903 25.7105 12.7569 25.2875 12.8203H25.3188C23.8625 13.1703 22.9375 15.0203 22.6125 16.0266C21.198 20.4344 23.4819 20.0911 23.8689 20.0329C23.894 20.0291 23.9111 20.0265 23.9188 20.0265L24.875 16.9703C24.8953 16.8943 24.8998 16.8149 24.8882 16.7371C24.8766 16.6593 24.8492 16.5846 24.8076 16.5179C24.766 16.4511 24.7111 16.3935 24.6464 16.3488C24.5817 16.3041 24.5084 16.2731 24.4313 16.2578H27.7687C27.5889 16.3101 27.4255 16.4076 27.2942 16.5411C27.1629 16.6746 27.068 16.8396 27.0188 17.0203L26.0563 20.0703C26.0515 20.0726 26.0451 20.0757 26.037 20.0797C25.7576 20.2171 23.5097 21.3224 21.4625 20.314C19.5 19.3453 19.8813 15.7203 21.4313 13.9516C23.8748 11.1554 27.3116 12.2197 27.9525 12.4182C27.9706 12.4238 27.9865 12.4287 28 12.4328L27.6438 13.5578C27.3324 13.2645 26.9586 13.0458 26.5505 12.918Z" fill="white"/>
<path fill-rule="evenodd" clip-rule="evenodd" d="M16.4562 15.1453C17.4062 12.8016 15.625 12.1641 14.4687 12.1641H10.6312C10.7428 12.2329 10.8253 12.3402 10.8633 12.4656C10.9013 12.5911 10.8921 12.7261 10.8375 12.8453L8.625 19.989C8.5681 20.1298 8.48344 20.2577 8.37607 20.3651C8.26869 20.4725 8.14079 20.5571 8 20.614H11.125C11.0612 20.5963 11.0018 20.5657 10.9502 20.5242C10.8986 20.4827 10.8561 20.4312 10.8251 20.3727C10.7941 20.3142 10.7753 20.2501 10.7699 20.1841C10.7646 20.1181 10.7727 20.0518 10.7937 19.989L11.6062 17.4078C11.6062 17.4078 15.3562 17.9078 16.475 15.1141L16.4562 15.1453ZM13.4375 12.8078C13.8437 12.8078 14.9687 12.8641 14.2437 14.9953C13.4812 17.2265 11.7937 16.7703 11.7937 16.7703L13.0437 12.8078H13.4375Z" fill="white"/>
<path fill-rule="evenodd" clip-rule="evenodd" d="M18.9625 20.5953H21.05C20.2829 20.3138 19.5842 19.8728 19 19.3015C19.4483 18.862 19.7177 18.2719 19.7562 17.6453H18.675C18.7378 17.6858 18.7895 17.7412 18.8255 17.8067C18.8616 17.8722 18.8807 17.9456 18.8812 18.0203C18.8784 18.3028 18.7889 18.5777 18.625 18.8078C18.2214 18.284 17.9492 17.671 17.8312 17.0203C18.3662 16.801 18.8704 16.5132 19.3312 16.1641C19.4891 16.0427 19.6193 15.889 19.713 15.7134C19.8068 15.5377 19.862 15.344 19.875 15.1453C19.8745 15.0208 19.8495 14.8976 19.8012 14.7828C19.7529 14.668 19.6824 14.564 19.5937 14.4766C19.4168 14.3169 19.204 14.2023 18.9733 14.1424C18.7427 14.0826 18.501 14.0793 18.2687 14.1328C17.9159 14.2014 17.5879 14.3633 17.3187 14.6016C16.8247 15.1498 16.5664 15.8706 16.6 16.6078C16.5953 16.6869 16.5953 16.7662 16.6 16.8453L16.5 16.8828C16.4552 16.8991 16.4032 16.917 16.3454 16.9369C15.8064 17.122 14.7639 17.4803 14.3687 18.389C14.2872 18.6133 14.247 18.8505 14.25 19.089C14.2467 19.3951 14.329 19.696 14.4875 19.9578C14.6703 20.2281 14.9236 20.4433 15.22 20.5799C15.5163 20.7165 15.8445 20.7694 16.1687 20.7328C16.8848 20.6663 17.5694 20.4071 18.15 19.9828C18.3882 20.2175 18.65 20.4269 18.9312 20.6078L18.9625 20.5953ZM17.7125 19.5203C17.3865 19.7129 17.0252 19.8383 16.65 19.889C16.5059 19.9204 16.3565 19.9179 16.2136 19.8815C16.0707 19.8452 15.9382 19.7761 15.8266 19.6796C15.715 19.5832 15.6274 19.4621 15.5707 19.326C15.514 19.1899 15.4898 19.0424 15.5 18.8953C15.5 18.1703 16.2875 17.6453 16.7125 17.464C16.9122 18.2067 17.2516 18.9046 17.7125 19.5203ZM18.9625 14.9703C18.7561 15.5907 18.3261 16.1121 17.7562 16.4328C17.6923 15.9196 17.7976 15.3995 18.0562 14.9516C18.2687 14.6266 18.55 14.4828 18.775 14.5578C18.9975 14.632 18.9816 14.7857 18.9631 14.9644L18.9625 14.9703Z" fill="white"/>
</g>
<defs>
<radialGradient id="paint0_radial_13177_25984" cx="0" cy="0" r="1" gradientUnits="userSpaceOnUse" gradientTransform="translate(6.5 8) rotate(77.4712) scale(23.0489 10.1454)">
<stop stop-color="#D8F1FC"/>
<stop offset="1" stop-color="#0098DA"/>
</radialGradient>
<linearGradient id="paint1_linear_13177_25984" x1="21" y1="0" x2="21" y2="32" gradientUnits="userSpaceOnUse">
<stop stop-color="#0093D7"/>
<stop offset="1" stop-color="#002A78"/>
</linearGradient>
<clipPath id="clip0_13177_25984">
<path d="M0 16C0 7.16344 7.16344 0 16 0C24.8366 0 32 7.16344 32 16C32 24.8366 24.8366 32 16 32C7.16344 32 0 24.8366 0 16Z" fill="white"/>
</clipPath>
</defs>
</svg>

<svg width="32" height="32" fill="none" xmlns="http://www.w3.org/2000/svg"><g clip-path="url(#a)"><path d="M0 16C0 7.163 7.163 0 16 0s16 7.163 16 16-7.163 16-16 16S0 24.837 0 16Z" fill="url(#b)"/><circle cx="21" cy="16" r="16" fill="url(#c)"/><path d="M26.55 12.918a2.827 2.827 0 0 0-1.262-.098h.03c-1.456.35-2.38 2.2-2.706 3.207-1.414 4.407.87 4.064 1.257 4.006.025-.004.042-.007.05-.007l.956-3.056a.575.575 0 0 0-.444-.712h3.338a1.094 1.094 0 0 0-.75.762l-.963 3.05a1.811 1.811 0 0 0-.019.01c-.28.137-2.527 1.242-4.575.234-1.962-.969-1.58-4.594-.03-6.362 2.443-2.797 5.88-1.732 6.52-1.534l.048.015-.356 1.125a2.826 2.826 0 0 0-1.093-.64Z" fill="#fff"/><path fill-rule="evenodd" clip-rule="evenodd" d="M16.456 15.145c.95-2.343-.831-2.98-1.987-2.98H10.63a.537.537 0 0 1 .207.68L8.625 19.99a1.132 1.132 0 0 1-.625.625h3.125a.486.486 0 0 1-.331-.625l.812-2.581s3.75.5 4.869-2.294l-.019.031Zm-3.018-2.337c.406 0 1.53.056.806 2.187-.763 2.232-2.45 1.775-2.45 1.775l1.25-3.962h.393Z" fill="#fff"/><path fill-rule="evenodd" clip-rule="evenodd" d="M18.962 20.595h2.088A5.78 5.78 0 0 1 19 19.302c.448-.44.718-1.03.756-1.657h-1.081a.45.45 0 0 1 .206.375 1.381 1.381 0 0 1-.256.788 4.139 4.139 0 0 1-.794-1.788 6.679 6.679 0 0 0 1.5-.856 1.4 1.4 0 0 0 .544-1.019.944.944 0 0 0-.281-.668 1.481 1.481 0 0 0-1.325-.344c-.353.068-.681.23-.95.469a2.806 2.806 0 0 0-.719 2.006c-.005.079-.005.158 0 .237l-.1.038-.155.054c-.539.185-1.581.543-1.976 1.452a1.977 1.977 0 0 0-.119.7c-.003.306.079.607.238.869a1.788 1.788 0 0 0 1.68.775 3.982 3.982 0 0 0 1.982-.75c.238.235.5.444.781.625l.031-.013Zm-1.25-1.075a2.835 2.835 0 0 1-1.062.369.95.95 0 0 1-1.15-.994c0-.725.788-1.25 1.212-1.431.2.743.54 1.44 1 2.056Zm1.25-4.55a2.631 2.631 0 0 1-1.206 1.463 2.375 2.375 0 0 1 .3-1.481c.213-.325.494-.47.719-.394.223.074.207.228.188.406v.006Z" fill="#fff"/></g><defs><radialGradient id="b" cx="0" cy="0" r="1" gradientUnits="userSpaceOnUse" gradientTransform="matrix(5 22.50004 -9.9038 2.20084 6.5 8)"><stop stop-color="#D8F1FC"/><stop offset="1" stop-color="#0098DA"/></radialGradient><linearGradient id="c" x1="21" y1="0" x2="21" y2="32" gradientUnits="userSpaceOnUse"><stop stop-color="#0093D7"/><stop offset="1" stop-color="#002A78"/></linearGradient><clipPath id="a"><path d="M0 16C0 7.163 7.163 0 16 0s16 7.163 16 16-7.163 16-16 16S0 24.837 0 16Z" fill="#fff"/></clipPath></defs></svg>
